**kern	**kern
*staff1	*staff2
*clefG2	*clefG2
*k[b-]	*k[b-]
*M2/4	*M2/4
*F:	*F:
[4cc	8F'
.	8r
=209	=209
24ccLL]	(8FL 8A
24a	.
24b-J	.
24ccL	8CJ
24dd	.
24eeJJ	.
24ffLL	8FL 8A
24ee	.
24ddJ	.
24ccL	8CJ
24b-	.
24aJJ)	.
=210	=210
(24b-LL	8EL 8G
24a	.
24b-J	.
24ccL	8CJ
24b	.
24ccJJ	.
24aLL	8FL 8A
24g#	.
24aJ	.
24ccL	8CJ)
24b	.
24ccJJ)	.
=211	=211
(24gLL	(8GL 8B-
24b	.
24ccJ	.
24fL	8AJ 8c
24b	.
24ccJJ	.
24eLL	8B-L 8d-
24b	.
24ccJ	.
24fL	8AJ 8c
24b	.
24ccJJ)	.
=212	=212
(4g	8GL 8B-
.	8FJ 8A
[4cc	8EL 8G
.	8CJ) 8E
=213	=213
24ccLL]	(8FL 8A
24a	.
24b-J	.
24ccL	8CJ
24dd	.
24eeJJ	.
24ffLL	8FL 8A
24ee	.
24ddJ	.
24ccL	8CJ
24b-	.
24aJJ)	.
=214	=214
(24b-LL	8EL 8G
24a	.
24b-J	.
24ggL	8CJ
24ff#	.
24ggJJ	.
24aLL	8FL 8A
24g#	.
24aJ	.
24ffL	8CJ)
24ee	.
24ffJJ)	.
=215	=215
(24gLL	8GL 8c
24f#	.
24gJ	.
24eeL	8CJ
24dd#	.
24eeJJ	.
24fLL	8A-L 8B
24e	.
24fJ	.
24ddL	8CJ
24cc#	.
24ddJJ)	.
=216	=216
24eLL	8GL 8c
24d#	.
24eJ	.
24ccL	8CJ
24b	.
24ccJJ	.
24fLL	8GL 8c
24cc#	.
24ddJ	.
24gL	8CJ
24dd#	.
24eeJJ	.
=217	=217
24ccLL	8EL 8G 8c
24b	.
24ccJ	.
24ggL	8CJ
24ff#	.
24ggJJ	.
24bLL	8DL 8F 8B
24a#	.
24bJ	.
24ggL	8CJ
24ff#	.
24ggJJ	.
=218	=218
24eLL	8EL 8G 8c
24d#	.
24eJ	.
24ccL	8CJ
24b	.
24ccJJ	.
24fLL	8GL 8c
24cc#	.
24ddJ	.
24gL	8CJ
24dd#	.
24eeJJ	.
=219	=219
24ccLL	8EL 8G 8c
24b	.
24ccJ	.
24ggL	8CJ
24ff#	.
24ggJJ	.
24bLL	8DL 8F 8B
24a#	.
24bJ	.
24ggL	8CJ
24ff#	.
24ggJJ	.
=220	=220
4cc;	4C; 4E; 4G; 4c;
*-	*-
